src/assets/outline/BagTick.svg

<svg width="24" height="24" viewBox="0 0 24 24"  xmlns="http://www.w3.org/2000/svg">
<path d="M11.1201 18.25C10.9301 18.25 10.7401 18.18 10.5901 18.03L9.09006 16.53C8.80006 16.24 8.80006 15.76 9.09006 15.47C9.38006 15.18 9.86006 15.18 10.1501 15.47L11.1401 16.46L13.8601 13.95C14.1601 13.67 14.6401 13.69 14.9201 13.99C15.2001 14.29 15.1801 14.77 14.8801 15.05L11.6301 18.05C11.4901 18.18 11.3101 18.25 11.1201 18.25Z" />
<path d="M5.18988 6.38043C4.99988 6.38043 4.79988 6.30043 4.65988 6.16043C4.36988 5.87043 4.36988 5.39043 4.65988 5.10043L8.28988 1.47043C8.57988 1.18043 9.05988 1.18043 9.34988 1.47043C9.63988 1.76043 9.63988 2.24043 9.34988 2.53043L5.71988 6.16043C5.56988 6.30043 5.37988 6.38043 5.18988 6.38043Z" />
<path d="M18.8101 6.38043C18.6201 6.38043 18.4301 6.31043 18.2801 6.16043L14.6501 2.53043C14.3601 2.24043 14.3601 1.76043 14.6501 1.47043C14.9401 1.18043 15.4201 1.18043 15.7101 1.47043L19.3401 5.10043C19.6301 5.39043 19.6301 5.87043 19.3401 6.16043C19.2001 6.30043 19.0001 6.38043 18.8101 6.38043Z" />
<path d="M20.21 10.5996C20.14 10.5996 20.07 10.5996 20 10.5996H19.77H4C3.3 10.6096 2.5 10.6096 1.92 10.0296C1.46 9.57961 1.25 8.87961 1.25 7.84961C1.25 5.09961 3.26 5.09961 4.22 5.09961H19.78C20.74 5.09961 22.75 5.09961 22.75 7.84961C22.75 8.88961 22.54 9.57961 22.08 10.0296C21.56 10.5496 20.86 10.5996 20.21 10.5996ZM4.22 9.09961H20.01C20.46 9.10961 20.88 9.10961 21.02 8.96961C21.09 8.89961 21.24 8.65961 21.24 7.84961C21.24 6.71961 20.96 6.59961 19.77 6.59961H4.22C3.03 6.59961 2.75 6.71961 2.75 7.84961C2.75 8.65961 2.91 8.89961 2.97 8.96961C3.11 9.09961 3.54 9.09961 3.98 9.09961H4.22Z" />
<path d="M14.8902 22.7498H8.86024C5.28024 22.7498 4.48024 20.6198 4.17024 18.7698L2.76024 10.1198C2.69024 9.70975 2.97024 9.32975 3.38024 9.25975C3.78024 9.18975 4.17024 9.46975 4.24024 9.87975L5.65024 18.5198C5.94024 20.2898 6.54024 21.2498 8.86024 21.2498H14.8902C17.4602 21.2498 17.7502 20.3498 18.0802 18.6098L19.7602 9.85975C19.8402 9.44975 20.2302 9.17975 20.6402 9.26975C21.0502 9.34975 21.3102 9.73975 21.2302 10.1498L19.5502 18.8998C19.1602 20.9298 18.5102 22.7498 14.8902 22.7498Z" />
</svg>

<?xml version="1.0" encoding="UTF-8"?>
<svg width="24" height="24" viewBox="0 0 24 24" xmlns="http://www.w3.org/2000/svg">
 <path d="m11.12 18.25c-0.19 0-0.38-0.07-0.53-0.22l-1.5-1.5c-0.29-0.29-0.29-0.77 0-1.06s0.77-0.29 1.06 0l0.99 0.99 2.72-2.51c0.3-0.28 0.78-0.26 1.06 0.04s0.26 0.78-0.04 1.06l-3.25 3c-0.14 0.13-0.32 0.2-0.51 0.2z"/>
 <path d="m5.1899 6.3804c-0.19 0-0.39-0.08-0.53-0.22-0.29-0.29-0.29-0.77 0-1.06l3.63-3.63c0.29-0.29 0.77-0.29 1.06 0s0.29 0.77 0 1.06l-3.63 3.63c-0.15 0.14-0.34 0.22-0.53 0.22z"/>
 <path d="m18.81 6.3804c-0.19 0-0.38-0.07-0.53-0.22l-3.63-3.63c-0.29-0.29-0.29-0.77 0-1.06s0.77-0.29 1.06 0l3.63 3.63c0.29 0.29 0.29 0.77 0 1.06-0.14 0.14-0.34 0.22-0.53 0.22z"/>
 <path d="m20.21 10.6h-0.21-16c-0.7 0.01-1.5 0.01-2.08-0.57-0.46-0.44999-0.67-1.15-0.67-2.18 0-2.75 2.01-2.75 2.97-2.75h15.56c0.96 0 2.97 0 2.97 2.75 0 1.04-0.21 1.73-0.67 2.18-0.52 0.52-1.22 0.57-1.87 0.57zm-15.99-1.5h15.79c0.45 0.01 0.87 0.01 1.01-0.13 0.07-0.07 0.22-0.31 0.22-1.12 0-1.13-0.28-1.25-1.47-1.25h-15.55c-1.19 0-1.47 0.12-1.47 1.25 0 0.81 0.16 1.05 0.22 1.12 0.14 0.13 0.57 0.13 1.01 0.13h0.24z"/>
 <path d="m14.89 22.75h-6.03c-3.58 0-4.38-2.13-4.69-3.98l-1.41-8.65c-0.07-0.41005 0.21-0.79005 0.62-0.86005 0.4-0.07 0.79 0.21 0.86 0.62l1.41 8.64c0.29 1.77 0.89 2.73 3.21 2.73h6.03c2.57 0 2.86-0.9 3.19-2.64l1.68-8.75c0.08-0.41 0.47-0.68 0.88-0.59 0.41 0.08 0.67 0.47 0.59 0.88005l-1.68 8.75c-0.39 2.03-1.04 3.85-4.66 3.85z"/>
</svg>
